img/twitter.svg

<svg width="32" height="33" fill="none" xmlns="http://www.w3.org/2000/svg"><path fill-rule="evenodd" clip-rule="evenodd" d="M0 16.5C0 7.663 7.163.5 16 .5s16 7.163 16 16-7.163 16-16 16-16-7.163-16-16zM22.1 12c.7-.1 1.3-.2 1.9-.5-.4.7-1 1.3-1.7 1.7.2 4.7-3.2 9.8-9.3 9.8-1.8 0-3.5-.6-5-1.5 1.7.2 3.5-.3 4.7-1.2-1.5 0-2.7-1-3.1-2.3.5.1 1 0 1.5-.1-1.5-.4-2.6-1.8-2.6-3.3.5.2 1 .4 1.5.4-1.4-1-1.9-2.9-1-4.4 1.7 2 4.1 3.3 6.8 3.4-.5-2 1.1-4 3.2-4 .9 0 1.8.4 2.4 1 .8-.2 1.5-.4 2.1-.8-.2.8-.7 1.4-1.4 1.8z" fill="#C0B7E8"/></svg>

<svg width="32" height="33" viewBox="0 0 32 33" fill="none" xmlns="http://www.w3.org/2000/svg">
<path fill-rule="evenodd" clip-rule="evenodd" d="M0 16.5C0 7.66344 7.16344 0.5 16 0.5C24.8366 0.5 32 7.66344 32 16.5C32 25.3366 24.8366 32.5 16 32.5C7.16344 32.5 0 25.3366 0 16.5ZM22.1 12C22.8 11.9 23.4 11.8 24 11.5C23.6 12.2 23 12.8 22.3 13.2C22.5 17.9 19.1 23 13 23C11.2 23 9.5 22.4 8 21.5C9.7 21.7 11.5 21.2 12.7 20.3C11.2 20.3 10 19.3 9.6 18C10.1 18.1 10.6 18 11.1 17.9C9.6 17.5 8.5 16.1 8.5 14.6C9 14.8 9.5 15 10 15C8.6 14 8.1 12.1 9 10.6C10.7 12.6 13.1 13.9 15.8 14C15.3 12 16.9 10 19 10C19.9 10 20.8 10.4 21.4 11C22.2 10.8 22.9 10.6 23.5 10.2C23.3 11 22.8 11.6 22.1 12Z" fill="#C0B7E8"/>
</svg>
